dist/assets/images/ico/ico_block.svg

<svg width="20" height="21" viewBox="0 0 20 21" fill="none" xmlns="http://www.w3.org/2000/svg">
<rect x="0.25" y="0.75" width="19.5" height="19.5" rx="0.583333" fill="#D6CBB6"/>
<rect x="0.25" y="0.75" width="19.5" height="19.5" rx="0.583333" stroke="#534731" stroke-width="0.5"/>
<path d="M13 5.5V7.5C15.2154 7.5 17 9.50769 17 12C17 14.4923 15.2154 16.5 13 16.5C10.9349 16.5 9.24531 14.7554 9.02539 12.5H4V5.5H13ZM13 12.5H9.64551C9.86153 14.3729 11.2739 15.8076 13 15.8076C14.8769 15.8076 16.3848 14.1115 16.3848 12C16.3848 9.95443 14.9697 8.29873 13.1748 8.19727L13 8.19238V12.5ZM4.64258 6.2002V11.7998H9.00391C9.08705 9.64457 10.5065 7.89142 12.3574 7.55762V6.2002H4.64258ZM12.3574 8.2627C10.8661 8.58959 9.7022 10.0298 9.62012 11.7998H12.3574V8.2627Z" fill="#212121"/>
</svg>

<svg width="20" height="21" fill="none" xmlns="http://www.w3.org/2000/svg"><rect x=".25" y=".75" width="19.5" height="19.5" rx=".583" fill="#D6CBB6"/><rect x=".25" y=".75" width="19.5" height="19.5" rx=".583" stroke="#534731" stroke-width=".5"/><path d="M13 5.5v2c2.215 0 4 2.008 4 4.5s-1.785 4.5-4 4.5c-2.065 0-3.755-1.745-3.975-4H4v-7h9zm0 7H9.646c.216 1.873 1.628 3.308 3.354 3.308 1.877 0 3.385-1.697 3.385-3.808 0-2.046-1.415-3.701-3.21-3.803L13 8.192V12.5zM4.643 6.2v5.6h4.36c.084-2.155 1.504-3.909 3.354-4.242V6.2H4.643zm7.714 2.063c-1.49.327-2.655 1.767-2.737 3.537h2.737V8.263z" fill="#212121"/></svg>
